X: 1335
T: a Cloudy Morning
R: reel
%S: s:4 b:16(4+4+4+4)
B: O'Neill's 1850 #1335
Z: Trish O'Neil
M: C|
L: 1/8
K: D
"^A"\
[| (3.d.d.d (dA) BdAF | AFAg fdBc | (3.d.d.d (dA) BdAF | GFEF GABc ||
|| {e}dcdA BdAF | ABde fdef | {a}gfge fedf | edce dAFA |]
"^B"\
[| abaf afdf | gefd edBd | afdf abaf | edefd2(df) ||
|| afdf abaf | gbfa edBe | (3.d.d.d (dA) BdAF | ABde fdd2 |]
